!!!OTL: Weh, Windgen, weh!
!!!ARE: Europa, Mitteleuropa, Deutschland
!!!SCT: A0507
!!!YEM: Copyright 1995, estate of Helmut Schaffrath.
**kern
*ICvox
*Ivox
*M4/4
*k[f#]
*G:
{4dd
4dd
4dd
4ee
=1
2dd
4b
4a
=2
4b
4dd
4cc
4b
=3
4.a
8b
4cc}
{4b
=4
4a
4g
4f#
4g
=5
2a}
{2d
=6
2g
2a
=7
4.b
8cc
4dd}
{4g
=8
4a
4b
4cc
4a
=9
1g}
==
!!!AGN: Romanze, Ballade, Lied, Kinderlied
!! Scheidt, Orgeltabulatur 1624 I, 7.
!!!ONB: ESAC (Essen Associative Code) Database: ALTDEU
!!!AMT: simple quadruple
!!!AIN: vox
!!!EED: Helmut Schaffrath
!!!EEV: 1.0
*-
